X: 93
M: 6/8
L: 1/8
K: G
|:\
|:\
dBd ece | d2B EFG | A2G FED |\
dBd ece | def g2G | A2G FED :|
|:\
dcB cBA | BAG EFG | A2G FED |\
dcB cBA | BAG EFG | A2F G2z H:|

